X:97
T:Polska (SvL Västergötland nr 97)
B:Svenska Låtar, Västergötland, nr 97
B:och på smus.se
H:efter Johannes Öst
N:Uppt. av Olof Andersson 1929
O:Ornunga, Västergötland
R:Polska
S:Johan Albert Pettersson
Z:Per Oldberg 2012-08-09
M:3/4
L:1/8
K:D
d3f ag | ef dc AF | DF Ad fa | ag ((3bgb) ba | 
a>f d>f a>g | ef dc AF | DF Ad fa | g>b a4 ::
[e3e3] (c [ee])c | ec d2 fa | a(g e)(c e)g | (g{ag})(f d)c [A2-A2] | 
[A2A2] c[ee] c[ee] | gf d2 fa | ag ec eg | (g{ag})f d4 :|

